X:28
T:Washington Hornpipe (Craig 28)
M:C
L:1/8
B:Empire Violin Collection of Hornpipes
H:Published by Thomas Craig
H:Music Publisher, &c.
H:George Street, Aberdeen, N.B.
Z:Peter Dunk December 2011
R:(hornpipe)
Q:1/4=140
K:Bb
B>cd>e fBAB | g>Ba>B b>BA>B | G>BF>B E>BD>B |1G>ec>A B>AG>F :|2 G>ec>A B2 z2 |!
|: fBAB fBAB | g>fg>a b>ag>f | b>ag>f e>dc>B | c>ec>A B>AG>F |!
B>cd>e fBAB | gBaB bBAB | G>BF>B E>BD>B | GecA B2z2 :|

